X: 1599
T: Rast Peşrev
C: Tatyos Efendi
O: Turkey
F: http://compmusic.upf.edu/node/140
N: rast--pesrev--muhammes----tatyos_efendi
N: makam= rast
N: form= pesrev
N: usul= muhammes = 32/4
M: 32/4
L: 1/16
K: C _1/4B ^f  
Q: 1/4=90
%%MIDI tuningsystem comma53
D2 G4 A2 B4 c4  | z2 d e d2 c2 B3 A G4  | \
w:  1. HANE  |   | 
z2 A4 B2 G4 A2 B2  | c2 d2 c2 B2 c3 e d4  | 
w:   |   | 
z2 c B A2 c2 B3 A G4  | D2 G4 B2 A B A G F G F E  | \
w:   |   | 
D2 G2 F2 A2 A G G F G4  | 
w:   | 
z2 B2 ^A2 c2 c B B A B4  | z2 B4 d2 d c c B c4  | \
w:   |   | 
c B A2 B2 c2 d2 e2 c2 d2  | 
w:   | 
d c B A B c d e d c B A G4  | A3 c c B B A A G G F G4  | 
w:   |   | 
z2 G4 F2 F E E ^D E4  | z2 c2 B2 A2 A G G F G4  | \
w:   |   | 
D2 G4 A2 B2 G2 A2 F2  | 
w:   | 
G F G A B c d e d c B c d4  | z2 G4 A2 B2 c2 A2 B2  | \
w:   |   | 
c2 d2 B2 c2 d6 e f  | 
w:   | 
g6 =f e e d d ^c d4  | z d2 e f g a2 a3 g g3 =f  | \
w:   |   | 
=f3 e e3 d d2 f e d c B ^A  | 
w:   | 
B2 c B A2 B2 c3 e d2 c2  | B3 A G2 B2 A3 G F2 A2  | \
w:   |   | 
G2 g4 =f e e d d ^c d4  | 
w:   | 
^c d c d c d c B c d e c d4  | d2 =f e e d d c c B B A G A B c  | 
w:   |   | 
d e =f4 f e e3 d d3 c  | z2 e4 e d d3 c c3 B  | \
w:   |   | 
z2 d4 d c c3 B B3 A  | 
w:   | 
A B c d B c A B G A F G E F D2  | \
w:   | 
D2 G4 A2 B2 G2 A2 F2  | 
w:   | 
G6 c2 B2 c2 d4  | _3/4e d c4 d2 d2 e g f e d2  | \
w:   |  2. HANE  | 
z2 _3/4e2 d2 c2 d3/2 e/ d c B4  | 
w:   | 
z2 _7/8e4 d2 ^c2 d2 e2 g2  | f3 _7/8e f e e d d8  | \
w:   |   | 
z2 g4 f2 a g g f g4  | 
w:   | 
f2 g2 a2 _b2 a2 g2 f2 _2/4e2  | f2 g2 f2 _2/4e2 e3 d c4  | \
w:   |   | 
c3 B A2 B2 c2 d4 c B  | 
w:   | 
d _3/4e f4 e d d c c B B4  | z2 c B A2 B2 c3 e d2 c2  | \
w:   |   | 
B3 A G4 z2 A B A2 G2  | 
w:   | 
A3 c c B B A A G G F G4  | z2 B4 B2 ^A3 c B4  | \
w:   |   | 
c2 d4 c B c3 e d4  | 
w:   | 
z2 B4 c2 B3 ^A G2 A2  | B6 d2 ^c3 e d4  | \
w:   |   | 
z2 G4 A2 B2 c2 A2 B2  | c2 d2 B2 c2 d6 e f  | 
w:   |   | 
g6 =f e e d d ^c d4  | z d2 e f g a2 a3 g g3 =f  | \
w:   |   | 
=f3 e e3 d d2 f e d c B ^A  | 
w:   | 
B2 c B A2 B2 c3 e d2 c2  | B3 A G2 B2 A3 G F2 A2  | \
w:   |   | 
G2 g4 =f e e d d ^c d4  | 
w:   | 
^c d c d c d c B c d e c d4  | d2 =f e e d d c c B B A G A B c  | 
w:   |   | 
d e =f4 f e e3 d d3 c  | z2 e4 e d d3 c c3 B  | \
w:   |   | 
z2 d4 d c c3 B B3 A  | 
w:   | 
A B c d B c A B G A F G E F D2  | \
w:   | 
D2 G4 A2 B2 G2 A2 F2  | 
w:   | 
G6 g2 f2 a2 g4  | e3 f g2 a2 a g g f g4  | \
w:   |  3. HANE  | 
f g a4 g ^3/4f f3 e d4  | 
w:   | 
z2 d4 c'2 b3 a a2 g f  | g6 f2 e2 f2 g4  | \
w:   |   | 
=f2 g4 f2 g3 f g2 a2  | _b a g2 =f2 g2 f3 _2/4e d4  | 
w:   |   | 
_2/4e2 d c d2 e2 g6 g =f  | =f3 _2/4e f e e d d8  | \
w:   |   | 
z2 =f4 f _1/4e e d2 c B3/2 ^A/ B2  | 
w:   | 
z2 g =f f e e d d3 c B3/2 A/ G2  | \
w:   | 
z2 G4 B2 z2 A4 c2  | z2 B4 d2 d c B ^A B4  | 
w:   |   | 
z2 c4 e2 e d c B A4  | z2 B2 c2 d2 B3 A G4  | \
w:   |   | 
z2 A4 c2 B3 A A2 A G  | 
w:   | 
G6 A2 B2 c2 d4  | z2 G4 A2 B2 c2 A2 B2  | \
w:   |   | 
c2 d2 B2 c2 d6 e f  | g6 =f e e d d ^c d4  | 
w:   |   | 
z d2 e f g a2 a3 g g3 =f  | =f3 e e3 d d2 f e d c B ^A  | 
w:   |   | 
B2 c B A2 B2 c3 e d2 c2  | B3 A G2 B2 A3 G F2 A2  | \
w:   |   | 
G2 g4 =f e e d d ^c d4  | 
w:   | 
^c d c d c d c B c d e c d4  | d2 =f e e d d c c B B A G A B c  | 
w:   |   | 
d e =f4 f e e3 d d3 c  | z2 e4 e d d3 c c3 B  | \
w:   |   | 
z2 d4 d c c3 B B3 A  | 
w:   | 
A B c d B c A B G A F G E F D2  | \
w:   | 
D2 G4 A2 B2 G2 A2 F2  | 
w:   | 
G6 b2 ^a2 c'2 b4  | z2 b4 c'2 c' b b ^a b4  | \
w:   |   | 
z2 g4 f2 f _1/4e e ^d e4  | 
w:   | 
e3 f g2 ^a2 b2 c'2 d'2 e'2  | d'3 c' b2 d'2 c'3 b ^a2 b2  | \
w:   |   | 
^a2 b2 c'2 c' b b6 c'2  | 
w:   | 
b2 ^a2 b4 g3 a b4  | z2 c'2 b2 ^a2 g4 d'4  | \
w:   |   | 
z2 e'2 d'2 c'2 b3 a g4  | z2 c'2 b2 a2 a2 g2 f2 e2  | 
w:   |   | 
d4 e2 f2 g2 b4 a g  | g6 d2 e2 f2 g4  | \
w:   |   | 
d e =f4 f e e3 d d3 c  | 
w:   | 
c3 B B3 A G2 d2 ^c2 e2  | d2 ^c4 _7/8B2 B3 A G4  | \
w:   |   | 
z2 A4 c2 B3 G A3 F  | 
w:   | 
G6 A2 B2 c2 d4  | z2 G4 A2 B2 c2 A2 B2  | \
w:   |   | 
c2 d2 B2 c2 d6 e f  | g6 =f e e d d ^c d4  | 
w:   |   | 
z d2 e f g a2 a3 g g3 =f  | =f3 e e3 d d2 f e d c B ^A  | 
w:   |   | 
B2 c B A2 B2 c3 e d2 c2  | B3 A G2 B2 A3 G F2 A2  | \
w:   |   | 
G2 g4 =f e e d d ^c d4  | 
w:   | 
^c d c d c d c B c d e c d4  | d2 =f e e d d c c B B A G A B c  | 
w:   |   | 
d e =f4 f e e3 d d3 c  | z2 e4 e d d3 c c3 B  | \
w:   |   | 
z2 d4 d c c3 B B3 A  | 
w:   | 
A B c d B c A B G A F G E F D2  | \
w:   | 
D2 G4 A2 B2 G2 A2 F2  | 
w:   | 
G6 D2 E2 F2 G4  | |


